src/assets/img/CowProtocol-icon.svg

<svg xmlns="http://www.w3.org/2000/svg" viewBox="0 0 725.97 637.21">
  <path d="m699.71 209.67-115.24-18.86 88-36.83 19.86-79.48-23.23-41.29L555.65 0l57.76 82.88.34.48-45.09 11.27-111.27-76.49L363 29.38l-94.42-11.24-111.27 76.49-45-11.26.34-.48L170.32 0 56.87 33.21 33.64 74.5 53.51 154l88 36.83-115.25 18.84L0 280.58l79 38.24 74.65-26.35 10.73 79.76 49.1 114.47 23.89 62.12L353 630.1l9.83 6.92v.14l.08.05.1-.07.1.07.07-.05V637l9.82-6.9 115.6-81.28 23.89-62.12 49.07-114.47 10.73-79.76 74.65 26.35 79-38.24ZM64.68 43l77.23-22.61L100 80.56l-51.1-9.47Zm-17 39.65 45 8.33L61 136Zm105 197.84-72.9 25.71-65.21-31.49 20.25-54.66 117.81-19.28Zm0-97.66-85.27-35.7 37.73-53.61 47.54 11.89ZM477.4 214l-11 36.89H259.56l-11-36.89L363 48.68ZM367.54 364.85H293l-29.82-102.32h199.61l-29.85 102.32Zm61.88 11.63-37 98.09L363 498.76l-29.43-24.19-37-98.09h132.85Zm-265.16-207V104l107.29-73.8 82.94 9.87.55.07-.24.23-116.61 167.54Zm60 312.88L175.72 369.1l-10.83-80.16 87.23-22.84 30.35 104.06-24.56 51.35-33.09 62.29Zm6.1 15.85 34.54-65 89 73.21-3 2.46-105.21 29.18ZM363 622.93l-107.44-75.54L363 517.55l107.42 29.84Zm117.29-84.87L375 508.83l-3-2.46 89-73.21 34.54 65Zm70-169-48.57 113.27-.57 1.47-33.09-62.29-24.56-51.35 30.35-104.06 87.23 22.84Zm11.46-199.65-73.93 38.46-116.65-167.5-.24-.23.55-.07 82.94-9.87L561.71 104ZM665 136l-31.69-45 45-8.33ZM584.06 20.43 661.29 43l15.78 28.05L626 80.56Zm-10.72 85 47.54-11.89 37.73 53.61-85.27 35.7Zm72.91 200.79-72.91-25.71v-79.74l117.81 19.28 20.25 54.66Z"/>
</svg>

<svg width="726" height="638" viewBox="0 0 726 638" fill="none" xmlns="http://www.w3.org/2000/svg">
<g clip-path="url(#clip0_3600_90)">
<path d="M699.71 209.67L584.47 190.81L672.47 153.98L692.33 74.5L669.1 33.21L555.65 0L613.41 82.88L613.75 83.36L568.66 94.63L457.39 18.14L363 29.38L268.58 18.14L157.31 94.63L112.31 83.37L112.65 82.89L170.32 0L56.87 33.21L33.64 74.5L53.51 154L141.51 190.83L26.26 209.67L0 280.58L79 318.82L153.65 292.47L164.38 372.23L213.48 486.7L237.37 548.82L353 630.1L362.83 637.02V637.16L362.91 637.21L363.01 637.14L363.11 637.21L363.18 637.16V637L373 630.1L488.6 548.82L512.49 486.7L561.56 372.23L572.29 292.47L646.94 318.82L725.94 280.58L699.71 209.67ZM64.68 43L141.91 20.39L100 80.56L48.9 71.09L64.68 43ZM47.68 82.65L92.68 90.98L61 136L47.68 82.65ZM152.68 280.49L79.78 306.2L14.57 274.71L34.82 220.05L152.63 200.77L152.68 280.49ZM152.68 182.83L67.41 147.13L105.14 93.52L152.68 105.41V182.83ZM477.4 214L466.4 250.89H259.56L248.56 214L363 48.68L477.4 214ZM367.54 364.85H293L263.18 262.53H462.79L432.94 364.85H367.54ZM429.42 376.48L392.42 474.57L363 498.76L333.57 474.57L296.57 376.48H429.42ZM164.26 169.48V104L271.55 30.2L354.49 40.07L355.04 40.14L354.8 40.37L238.19 207.91L164.26 169.48ZM224.26 482.36L175.72 369.1L164.89 288.94L252.12 266.1L282.47 370.16L257.91 421.51L224.82 483.8L224.26 482.36ZM230.36 498.21L264.9 433.21L353.9 506.42L350.9 508.88L245.69 538.06L230.36 498.21ZM363 622.93L255.56 547.39L363 517.55L470.42 547.39L363 622.93ZM480.29 538.06L375 508.83L372 506.37L461 433.16L495.54 498.16L480.29 538.06ZM550.29 369.06L501.72 482.33L501.15 483.8L468.06 421.51L443.5 370.16L473.85 266.1L561.08 288.94L550.29 369.06ZM561.75 169.41L487.82 207.87L371.17 40.37L370.93 40.14L371.48 40.07L454.42 30.2L561.71 104L561.75 169.41ZM665 136L633.31 91L678.31 82.67L665 136ZM584.06 20.43L661.29 43L677.07 71.05L626 80.56L584.06 20.43ZM573.34 105.43L620.88 93.54L658.61 147.15L573.34 182.85V105.43ZM646.25 306.22L573.34 280.51V200.77L691.15 220.05L711.4 274.71L646.25 306.22Z" fill="white"/>
<path d="M152.68 182.83L67.41 147.13L105.14 93.52L152.68 105.41V182.83Z" fill="white"/>
<path d="M164.26 169.48V104L271.55 30.2L354.49 40.07L355.04 40.14L354.8 40.37L238.19 207.91L164.26 169.48Z" fill="white"/>
<path d="M477.4 214L466.4 250.89H259.56L248.56 214L363 48.68L477.4 214Z" fill="white"/>
<path d="M561.75 169.41L487.82 207.87L371.17 40.37L370.93 40.14L371.48 40.07L454.42 30.2L561.71 104L561.75 169.41Z" fill="white"/>
<path d="M646.25 306.22L573.34 280.51V200.77L691.15 220.05L711.4 274.71L646.25 306.22Z" fill="white"/>
<path d="M573.34 105.43L620.88 93.54L658.61 147.15L573.34 182.85V105.43Z" fill="white"/>
<path d="M665 136L633.31 91L678.31 82.67L665 136Z" fill="white"/>
<path d="M584.06 20.43L661.29 43L677.07 71.05L626 80.56L584.06 20.43Z" fill="white"/>
<path d="M550.29 369.06L501.72 482.33L501.15 483.8L468.06 421.51L443.5 370.16L473.85 266.1L561.08 288.94L550.29 369.06Z" fill="white"/>
<path d="M367.54 364.85H293L263.18 262.53H462.79L432.94 364.85H367.54Z" fill="white"/>
<path d="M224.26 482.36L175.72 369.1L164.89 288.94L252.12 266.1L282.47 370.16L257.91 421.51L224.82 483.8L224.26 482.36Z" fill="white"/>
<path d="M429.42 376.48L392.42 474.57L363 498.76L333.57 474.57L296.57 376.48H429.42Z" fill="white"/>
<path d="M230.36 498.21L264.9 433.21L353.9 506.42L350.9 508.88L245.69 538.06L230.36 498.21Z" fill="white"/>
<path d="M363 622.93L255.56 547.39L363 517.55L470.42 547.39L363 622.93Z" fill="white"/>
<path d="M480.29 538.06L375 508.83L372 506.37L461 433.16L495.54 498.16L480.29 538.06Z" fill="white"/>
<path d="M152.68 280.49L79.78 306.2L14.57 274.71L34.82 220.05L152.63 200.77L152.68 280.49Z" fill="white"/>
<path d="M47.68 82.65L92.68 90.98L61 136L47.68 82.65Z" fill="white"/>
<path d="M64.68 43L141.91 20.39L100 80.56L48.9 71.09L64.68 43Z" fill="white"/>
<path d="M699.71 209.67L584.47 190.81L672.47 153.98L692.33 74.5L669.1 33.21L555.65 0L613.41 82.88L613.75 83.36L568.66 94.63L457.39 18.14L363 29.38L268.58 18.14L157.31 94.63L112.31 83.37L112.65 82.89L170.32 0L56.87 33.21L33.64 74.5L53.51 154L141.51 190.83L26.26 209.67L0 280.58L79 318.82L153.65 292.47L164.38 372.23L213.48 486.7L237.37 548.82L353 630.1L362.83 637.02V637.16L362.91 637.21L363.01 637.14L363.11 637.21L363.18 637.16V637L373 630.1L488.6 548.82L512.49 486.7L561.56 372.23L572.29 292.47L646.94 318.82L725.94 280.58L699.71 209.67ZM64.68 43L141.91 20.39L100 80.56L48.9 71.09L64.68 43ZM47.68 82.65L92.68 90.98L61 136L47.68 82.65ZM152.68 280.49L79.78 306.2L14.57 274.71L34.82 220.05L152.63 200.77L152.68 280.49ZM152.68 182.83L67.41 147.13L105.14 93.52L152.68 105.41V182.83ZM477.4 214L466.4 250.89H259.56L248.56 214L363 48.68L477.4 214ZM367.54 364.85H293L263.18 262.53H462.79L432.94 364.85H367.54ZM429.42 376.48L392.42 474.57L363 498.76L333.57 474.57L296.57 376.48H429.42V376.48ZM164.26 169.48V104L271.55 30.2L354.49 40.07L355.04 40.14L354.8 40.37L238.19 207.91L164.26 169.48ZM224.26 482.36L175.72 369.1L164.89 288.94L252.12 266.1L282.47 370.16L257.91 421.51L224.82 483.8L224.26 482.36ZM230.36 498.21L264.9 433.21L353.9 506.42L350.9 508.88L245.69 538.06L230.36 498.21ZM363 622.93L255.56 547.39L363 517.55L470.42 547.39L363 622.93ZM480.29 538.06L375 508.83L372 506.37L461 433.16L495.54 498.16L480.29 538.06ZM550.29 369.06L501.72 482.33L501.15 483.8L468.06 421.51L443.5 370.16L473.85 266.1L561.08 288.94L550.29 369.06ZM561.75 169.41L487.82 207.87L371.17 40.37L370.93 40.14L371.48 40.07L454.42 30.2L561.71 104L561.75 169.41ZM665 136L633.31 91L678.31 82.67L665 136ZM584.06 20.43L661.29 43L677.07 71.05L626 80.56L584.06 20.43ZM573.34 105.43L620.88 93.54L658.61 147.15L573.34 182.85V105.43ZM646.25 306.22L573.34 280.51V200.77L691.15 220.05L711.4 274.71L646.25 306.22Z" fill="black"/>
</g>
<defs>
<clipPath id="clip0_3600_90">
<rect width="725.97" height="637.21" fill="white"/>
</clipPath>
</defs>
</svg>
